modules/hawcons-filled/icons/move.svg

<?xml version="1.0" encoding="UTF-8" standalone="no"?>
<svg width="32px" height="32px" viewBox="0 0 32 32" version="1.1" xmlns="http://www.w3.org/2000/svg" xmlns:xlink="http://www.w3.org/1999/xlink" xmlns:sketch="http://www.bohemiancoding.com/sketch/ns">
    <!-- Generator: Sketch 3.0.3 (7891) - http://www.bohemiancoding.com/sketch -->
    <title>icon 29 move</title>
    <desc>Created with Sketch.</desc>
    <defs></defs>
    <g id="Page-1" stroke="none" stroke-width="1" fill="none" fill-rule="evenodd" sketch:type="MSPage">
        <g id="icon-29-move" sketch:type="MSArtboardGroup" fill="#929292">
            <path d="M19.4748737,22.0248828 L19.4748737,18.3495995 L11.1732515,9.97487373 L14.4748737,9.97487373 L14.4748737,8.97487373 L9.47487373,8.97487373 L9.47487373,13.9748737 L10.4748737,13.9748737 L10.4748737,10.6819805 L18.4748737,18.6819805 L18.4748737,22.0248828 C17.3337536,22.256518 16.4748737,23.2653948 16.4748737,24.4748737 C16.4748737,25.8555856 17.5941619,26.9748737 18.9748737,26.9748737 C20.3555856,26.9748737 21.4748737,25.8555856 21.4748737,24.4748737 C21.4748737,23.2653948 20.6159939,22.256518 19.4748737,22.0248828 L19.4748737,22.0248828 Z M10.4748737,21.1819805 L8.70710678,22.9497475 L8,22.2426407 L9.76776695,20.4748737 L8,18.7071068 L8.70710678,18 L10.4748737,19.767767 L12.2426407,18 L12.9497475,18.7071068 L11.1819805,20.4748737 L12.9497475,22.2426407 L12.2426407,22.9497475 L10.4748737,21.1819805 L10.4748737,21.1819805 Z M24.4748737,14.1819805 L22.7071068,15.9497475 L22,15.2426407 L23.767767,13.4748737 L22,11.7071068 L22.7071068,11 L24.4748737,12.767767 L26.2426407,11 L26.9497475,11.7071068 L25.1819805,13.4748737 L26.9497475,15.2426407 L26.2426407,15.9497475 L24.4748737,14.1819805 L24.4748737,14.1819805 L24.4748737,14.1819805 Z M19.4748737,7.18198052 L17.7071068,8.94974747 L17,8.24264069 L18.767767,6.47487373 L17,4.70710678 L17.7071068,4 L19.4748737,5.76776695 L21.2426407,4 L21.9497475,4.70710678 L20.1819805,6.47487373 L21.9497475,8.24264069 L21.2426407,8.94974747 L19.4748737,7.18198052 L19.4748737,7.18198052 Z" id="move" sketch:type="MSShapeGroup"></path>
        </g>
    </g>
</svg>

<svg width="32" height="32" viewBox="0 0 32 32" xmlns="http://www.w3.org/2000/svg"><path d="M19.475 22.025V18.35l-8.302-8.375h3.302v-1h-5v5h1v-3.293l8 8v3.343a2.5 2.5 0 1 0 1 0zm-9-.843L8.707 22.95 8 22.243l1.768-1.768L8 18.707 8.707 18l1.768 1.768L12.243 18l.707.707-1.768 1.768 1.768 1.768-.707.707-1.768-1.768zm14-7l-1.768 1.768-.707-.707 1.768-1.768L22 11.707l.707-.707 1.768 1.768L26.243 11l.707.707-1.768 1.768 1.768 1.768-.707.707-1.768-1.768zm-5-7L17.707 8.95 17 8.243l1.768-1.768L17 4.707 17.707 4l1.768 1.768L21.243 4l.707.707-1.768 1.768 1.768 1.768-.707.707-1.768-1.768z" fill="#929292" fill-rule="evenodd"/></svg>
